X: 28
T:Malochet
M:2/4
L:1/8
R:Bourree
Z:Steve Mansfield
K:G
B2c2 | d3 g | f>d ef | e2 d2 | B2c2 | d3g |
f>d ef |1g4 :|2 g3d |: g2 ab | agfd | e/d/e/f/ ge | d3d |
c/B/c/d/ ec | B2GB |1 ABcd|e4 :|2 AB/c/ de/f/ | g4 ||

